material/.icons/material/signal-cellular-1.svg

<?xml version="1.0" encoding="UTF-8"?><!DOCTYPE svg PUBLIC "-//W3C//DTD SVG 1.1//EN" "http://www.w3.org/Graphics/SVG/1.1/DTD/svg11.dtd"><svg xmlns="http://www.w3.org/2000/svg" xmlns:xlink="http://www.w3.org/1999/xlink" version="1.1" id="mdi-signal-cellular-1" width="24" height="24" viewBox="0 0 24 24"><path d="M19.5,5.5V18.5H17.5V5.5H19.5M12.5,10.5V18.5H10.5V10.5H12.5M21,4H16V20H21V4M14,9H9V20H14V9M7,14H2V20H7V14Z" /></svg>

<svg xmlns="http://www.w3.org/2000/svg" viewBox="0 0 24 24"><path d="M19.5 5.5v13h-2v-13h2m-7 5v8h-2v-8h2M21 4h-5v16h5V4m-7 5H9v11h5V9m-7 5H2v6h5v-6z"/></svg>
